X:1
T:Title
%%score { ( 1 3 4 ) | ( 2 5 ) }
L:1/8
M:4/4
K:Bb
V:1 treble nm="Grand Piano"
V:3 treble 
V:4 treble 
V:2 bass 
V:5 bass 
V:1
 z4 z2[Q:1/4=96] [B,D][CE] | [DF]2 [DF]2 [EG][DF][B,D][CE] | [DF]2 [DB]4 [FB][FB] | %3
 c2 c2 c[FA][FB][Fc] | [Fd]6 [FB][FA] | G2 G2 G[GB][FA][EG] |[M:3/4] [DF]2 [DB]4 | %7
[M:1/4] [Fd][Fd] |[M:4/4] [=Ed] [Ec]3- [Ec]2 G2 |[M:3/4] c6[K:bass] |[M:1/4] D[CE] | %11
[M:4/4][K:treble] z/ [DB]3/2- [DB]4[K:bass][K:treble] z2 |[M:3/4] z/ [Ec]3/2- [Ec]4 | %13
[M:1/4] c[GB] |[M:4/4] A<A A>A G2 FF | d6[K:bass][K:treble] z2 |[M:3/4] z/ B3/2- B4[K:bass] | %17
[M:1/4][K:treble] B>A |[M:4/4] z/ c3/2- c4 z2 | A<A A>A .G2 A2 |[M:3/4] [DB]6 |] %21
V:2
 z4 z2 [B,,F,][B,,F,] | [B,,B,]2 [B,,B,]2 [B,,B,][B,,B,][B,,F,][B,,F,] | %2
 [B,,B,]2 [B,,F,]4 [D,B,][D,B,] | [F,A,F]2 [F,A,F]2 [F,A,F][E,C][D,B,][C,A,] | %4
 [B,,B,]6 [D,B,][D,B,] | [E,B,E]2 [E,B,E]2 [E,B,E][E,B,][E,B,][E,B,] |[M:3/4] [B,,B,]2 [B,,B,]4 | %7
[M:1/4] [B,,B,][B,,B,] |[M:4/4] [C,B,] [C,B,]3- [C,B,]2 [=E,B,C]2 |[M:3/4] [A,E]6 | %10
[M:1/4] [B,,F,B,][B,,F,] |[M:4/4] [B,,B,]<[B,,F,] B,,>B,, B,,2 D,D, |[M:3/4] E,<[E,G,] E,>E, E,2 | %13
[M:1/4] [=E,G,C][E,C] |[M:4/4][K:treble] [F,CF]<[F,CF] [F,CF]>[F,CF] [G,B,E]2 .[A,CE]2 | %15
 [B,F]6 CC |[M:3/4] z/[K:bass] D3/2- D4 |[M:1/4] D>[K:treble]F |[M:4/4] z/[K:bass] E3/2- E4 z2 | %19
 [F,CF]<[F,CF] [F,CF]>[F,CF] .[F,A,E]2 [F,E]2 |[M:3/4] [B,,F,]6 |] %21
V:3
 x8 | x8 | x8 | x8 | x8 | x8 |[M:3/4] x6 |[M:1/4] x2 |[M:4/4] x8 |[M:3/4] z2 z[K:bass] G, z E, | %10
[M:1/4] x2 |[M:4/4][K:treble] .[DF]2 F,>[K:bass]F, F,2[K:treble] [B,FB][B,FA] | %12
[M:3/4] .[B,EG]2 G,>G, G,2 |[M:1/4] x2 |[M:4/4] x8 | z[K:bass] G,F,D, B,,2[K:treble] FE | %16
[M:3/4] .F2 F,>[K:bass]F, F,2 |[M:1/4][K:treble] x2 |[M:4/4] .G2 G,>G, G,2 c[GB] | x8 | %20
[M:3/4] x6 |] %21
V:4
 x8 | x8 | x8 | x8 | x8 | x8 |[M:3/4] x6 |[M:1/4] x2 |[M:4/4] x8 |[M:3/4] z2 z2[K:bass] F,2 | %10
[M:1/4] x2 |[M:4/4][K:treble] x7/2[K:bass] x5/2[K:treble] x2 |[M:3/4] x6 |[M:1/4] x2 |[M:4/4] x8 | %15
 x[K:bass] x5[K:treble] x2 |[M:3/4] x7/2[K:bass] x5/2 |[M:1/4][K:treble] x2 |[M:4/4] x8 | x8 | %20
[M:3/4] x6 |] %21
V:5
 x8 | x8 | x8 | x8 | x8 | x8 |[M:3/4] x6 |[M:1/4] x2 |[M:4/4] x8 |[M:3/4] F,4 z2 |[M:1/4] x2 | %11
[M:4/4] x8 |[M:3/4] x6 |[M:1/4] x2 |[M:4/4][K:treble] x8 | x8 |[M:3/4] .D2[K:bass] B,,>B,, B,,2 | %17
[M:1/4] x3/2[K:treble] x/ |[M:4/4] .E2[K:bass] E,>E, E,2 [=E,G,C][E,C] | x8 |[M:3/4] x6 |] %21

